Newaita-dark/apps/16/typecatcher.svg

<?xml version="1.0" encoding="UTF-8"?>
<svg xmlns="http://www.w3.org/2000/svg" xmlns:xlink="http://www.w3.org/1999/xlink" width="16pt" height="16pt" viewBox="0 0 16 16" version="1.1">
<defs>
<radialGradient id="radial0" gradientUnits="userSpaceOnUse" cx="450.908936" cy="189.579361" fx="450.908936" fy="189.579361" r="21.166656" gradientTransform="matrix(0.0000000870852,-0.0390662,-0.0703192,-0.0000000507693,25.073042,30.474623)">
<stop offset="0" style="stop-color:rgb(0%,0%,0%);stop-opacity:0.313725;"/>
<stop offset="0.222222" style="stop-color:rgb(0%,0%,0%);stop-opacity:0.27451;"/>
<stop offset="1" style="stop-color:rgb(0%,0%,0%);stop-opacity:0;"/>
</radialGradient>
<radialGradient id="radial1" gradientUnits="userSpaceOnUse" cx="450.908936" cy="189.579361" fx="450.908936" fy="189.579361" r="21.166656" gradientTransform="matrix(-0.0000000870852,0.0390662,0.0703192,0.0000000507693,-9.858049,-5.086783)">
<stop offset="0" style="stop-color:rgb(0%,0%,0%);stop-opacity:0.313725;"/>
<stop offset="0.222222" style="stop-color:rgb(0%,0%,0%);stop-opacity:0.27451;"/>
<stop offset="1" style="stop-color:rgb(0%,0%,0%);stop-opacity:0;"/>
</radialGradient>
<radialGradient id="radial2" gradientUnits="userSpaceOnUse" cx="450.908936" cy="189.579361" fx="450.908936" fy="189.579361" r="21.166656" gradientTransform="matrix(-0.0000000870852,-0.0390662,0.0703192,-0.0000000507693,-9.858049,30.474623)">
<stop offset="0" style="stop-color:rgb(0%,0%,0%);stop-opacity:0.313725;"/>
<stop offset="0.222222" style="stop-color:rgb(0%,0%,0%);stop-opacity:0.27451;"/>
<stop offset="1" style="stop-color:rgb(0%,0%,0%);stop-opacity:0;"/>
</radialGradient>
<radialGradient id="radial3" gradientUnits="userSpaceOnUse" cx="450.908936" cy="189.579361" fx="450.908936" fy="189.579361" r="21.166656" gradientTransform="matrix(0.0000000870852,0.0390662,-0.0703192,0.0000000507693,25.073041,-5.086783)">
<stop offset="0" style="stop-color:rgb(0%,0%,0%);stop-opacity:0.313725;"/>
<stop offset="0.222222" style="stop-color:rgb(0%,0%,0%);stop-opacity:0.27451;"/>
<stop offset="1" style="stop-color:rgb(0%,0%,0%);stop-opacity:0;"/>
</radialGradient>
<linearGradient id="linear0" gradientUnits="userSpaceOnUse" x1="255.323059" y1="233.5" x2="255.323044" y2="254.666656" gradientTransform="matrix(0.00668003,0,0,0.031253,5.07503,5.39635)">
<stop offset="0" style="stop-color:rgb(0%,0%,0%);stop-opacity:0.27451;"/>
<stop offset="1" style="stop-color:rgb(0%,0%,0%);stop-opacity:0;"/>
</linearGradient>
<linearGradient id="linear1" gradientUnits="userSpaceOnUse" x1="254" y1="191.166672" x2="254" y2="-126.333344" gradientTransform="matrix(0.031253,0,0,0.031253,0,6.719392)">
<stop offset="0" style="stop-color:rgb(69.019608%,74.509804%,77.254902%);stop-opacity:1;"/>
<stop offset="1" style="stop-color:rgb(81.176471%,84.705882%,86.27451%);stop-opacity:1;"/>
</linearGradient>
<linearGradient id="linear2" gradientUnits="userSpaceOnUse" x1="227.541672" y1="244.083328" x2="227.541672" y2="-168.666656" >
<stop offset="0" style="stop-color:rgb(37.647059%,49.019608%,54.509804%);stop-opacity:1;"/>
<stop offset="1" style="stop-color:rgb(47.058824%,56.470588%,61.176471%);stop-opacity:1;"/>
</linearGradient>
</defs>
<g id="surface1">
<path style=" stroke:none;fill-rule:nonzero;fill:url(#radial0);" d="M 11.90625 12.695312 L 13.230469 12.695312 L 13.230469 12.03125 L 11.90625 12.03125 Z M 11.90625 12.695312 "/>
<path style=" stroke:none;fill-rule:nonzero;fill:url(#radial1);" d="M 3.308594 12.695312 L 1.984375 12.695312 L 1.984375 13.355469 L 3.308594 13.355469 Z M 3.308594 12.695312 "/>
<path style=" stroke:none;fill-rule:nonzero;fill:url(#radial2);" d="M 3.308594 12.695312 L 1.984375 12.695312 L 1.984375 12.03125 L 3.308594 12.03125 Z M 3.308594 12.695312 "/>
<path style=" stroke:none;fill-rule:nonzero;fill:url(#radial3);" d="M 11.90625 12.695312 L 13.230469 12.695312 L 13.230469 13.355469 L 11.90625 13.355469 Z M 11.90625 12.695312 "/>
<path style=" stroke:none;fill-rule:nonzero;fill:url(#linear0);" d="M 3.308594 12.527344 L 11.90625 12.527344 L 11.90625 13.355469 L 3.308594 13.355469 Z M 3.308594 12.527344 "/>
<path style=" stroke:none;fill-rule:nonzero;fill:url(#linear1);" d="M 7.601562 2.765625 C 5.035156 2.765625 2.96875 4.945312 2.96875 7.65625 L 2.96875 7.796875 C 2.96875 7.886719 2.972656 7.976562 2.976562 8.0625 C 1.863281 8.132812 0.984375 9.085938 0.984375 10.253906 L 0.984375 10.492188 C 0.984375 11.707031 1.933594 12.6875 3.113281 12.6875 L 4.960938 12.6875 L 4.960938 12.691406 L 11.90625 12.691406 C 13.738281 12.691406 15.214844 11.21875 15.214844 9.386719 C 15.214844 7.578125 13.78125 6.121094 11.988281 6.078125 C 11.367188 4.148438 9.644531 2.765625 7.601562 2.765625 Z M 7.601562 2.765625 "/>
<path style=" stroke:none;fill-rule:nonzero;fill:rgb(98.039216%,98.039216%,98.039216%);fill-opacity:0.588235;" d="M 3.296875 8.0625 C 2.003906 8.0625 0.96875 9.097656 0.96875 10.378906 C 0.96875 10.414062 0.96875 10.449219 0.96875 10.480469 C 1.023438 9.246094 2.039062 8.269531 3.296875 8.269531 C 4.550781 8.269531 5.566406 9.246094 5.621094 10.480469 C 5.621094 10.449219 5.621094 10.414062 5.621094 10.378906 C 5.621094 9.097656 4.585938 8.0625 3.296875 8.0625 Z M 3.296875 8.0625 "/>
<path style=" stroke:none;fill-rule:nonzero;fill:rgb(100%,100%,100%);fill-opacity:0.392157;" d="M 7.601562 2.765625 C 5.035156 2.765625 2.96875 4.945312 2.96875 7.65625 L 2.96875 7.796875 C 2.96875 7.816406 2.96875 7.832031 2.96875 7.851562 C 3 5.167969 5.054688 3.019531 7.601562 3.019531 C 9.644531 3.019531 11.367188 4.402344 11.988281 6.332031 C 13.738281 6.375 15.148438 7.765625 15.210938 9.511719 C 15.214844 9.46875 15.214844 9.425781 15.214844 9.386719 C 15.214844 7.578125 13.78125 6.121094 11.988281 6.078125 C 11.367188 4.148438 9.644531 2.765625 7.601562 2.765625 Z M 2.96875 8.0625 C 1.859375 8.136719 0.984375 9.085938 0.984375 10.253906 L 0.984375 10.492188 C 0.984375 10.492188 0.984375 10.496094 0.984375 10.5 C 0.992188 9.332031 1.863281 8.386719 2.976562 8.316406 C 2.972656 8.230469 2.96875 8.148438 2.96875 8.0625 Z M 2.96875 8.0625 "/>
<path style="fill-rule:nonzero;fill:url(#linear2);stroke-width:3;stroke-linecap:butt;stroke-linejoin:miter;stroke:rgb(12.941177%,12.941177%,12.941177%);stroke-opacity:1;stroke-miterlimit:4;" d="M 201.105795 -72.888571 C 174.98329 -72.888571 153.735319 -54.515326 153.735319 -31.267546 L 153.735319 31.726439 C 153.735319 38.975747 159.48477 44.725197 166.734078 44.725197 C 173.858397 44.725197 179.732836 38.975747 179.732836 31.726439 L 179.732836 14.603074 C 179.732836 8.978611 184.107419 4.604029 189.606893 4.604029 L 212.604697 4.604029 C 218.104172 4.604029 222.478754 8.978611 222.478754 14.603074 L 222.478754 31.726439 C 222.478754 38.975747 228.353193 44.725197 235.477513 44.725197 C 242.601833 44.725197 248.476272 38.975747 248.476272 31.726439 L 248.476272 -31.267546 C 248.476272 -54.515326 227.228301 -72.888571 201.105795 -72.888571 Z M 201.105795 -47.016042 C 205.105413 -47.016042 210.729876 -45.891149 215.229447 -43.766352 C 219.604029 -41.516567 222.603742 -38.391865 222.478754 -34.142271 L 222.478754 -25.518095 C 222.478754 -20.01862 218.104172 -15.519049 212.604697 -15.519049 L 189.606893 -15.519049 C 184.107419 -15.519049 179.732836 -20.01862 179.732836 -25.518095 L 179.732836 -34.142271 C 179.732836 -38.516853 182.73255 -41.516567 187.107132 -43.766352 C 191.481714 -45.891149 196.981189 -47.016042 201.105795 -47.016042 Z M 201.105795 -47.016042 " transform="matrix(0.031253,0,0,0.031253,0,6.719392)"/>
<path style=" stroke:none;fill-rule:nonzero;fill:rgb(0%,0%,0%);fill-opacity:0.235294;" d="M 2.96875 7.597656 C 2.96875 7.617188 2.96875 7.636719 2.96875 7.65625 L 2.96875 7.796875 C 2.96875 7.800781 2.96875 7.804688 2.96875 7.808594 C 2.972656 7.808594 2.976562 7.808594 2.976562 7.808594 C 2.972656 7.738281 2.972656 7.667969 2.96875 7.597656 Z M 15.210938 9.257812 C 15.148438 11.03125 13.699219 12.441406 11.90625 12.441406 L 4.960938 12.441406 L 4.960938 12.433594 L 3.113281 12.433594 C 1.9375 12.433594 0.992188 11.460938 0.984375 10.246094 C 0.984375 10.25 0.984375 10.253906 0.984375 10.253906 L 0.984375 10.492188 C 0.984375 11.707031 1.933594 12.6875 3.113281 12.6875 L 4.960938 12.6875 L 4.960938 12.691406 L 11.90625 12.691406 C 13.738281 12.691406 15.214844 11.21875 15.214844 9.386719 C 15.214844 9.34375 15.214844 9.300781 15.210938 9.257812 Z M 15.210938 9.257812 "/>
<path style=" stroke:none;fill-rule:nonzero;fill:rgb(98.039216%,98.039216%,98.039216%);fill-opacity:0.588235;" d="M 11.988281 6.078125 C 10.203125 6.078125 8.765625 7.554688 8.765625 9.386719 C 8.765625 9.429688 8.765625 9.46875 8.765625 9.511719 C 8.832031 7.734375 10.242188 6.328125 11.988281 6.328125 C 13.734375 6.328125 15.148438 7.734375 15.210938 9.511719 C 15.214844 9.46875 15.214844 9.429688 15.214844 9.386719 C 15.214844 7.554688 13.777344 6.078125 11.988281 6.078125 Z M 11.988281 6.078125 "/>
<path style=" stroke:none;fill-rule:nonzero;fill:rgb(12.941177%,12.941177%,12.941177%);fill-opacity:1;" d="M 7.601562 2.71875 C 5.007812 2.71875 2.921875 4.921875 2.921875 7.65625 L 2.921875 7.796875 C 2.921875 7.871094 2.925781 7.945312 2.929688 8.019531 C 1.8125 8.117188 0.9375 9.078125 0.9375 10.253906 L 0.9375 10.492188 C 0.9375 11.734375 1.90625 12.734375 3.113281 12.734375 L 4.941406 12.734375 C 4.949219 12.738281 4.953125 12.738281 4.960938 12.738281 L 11.90625 12.738281 C 13.765625 12.738281 15.261719 11.242188 15.261719 9.386719 C 15.261719 7.566406 13.824219 6.09375 12.019531 6.035156 C 11.386719 4.101562 9.652344 2.71875 7.601562 2.71875 Z M 7.601562 2.8125 C 9.621094 2.8125 11.328125 4.179688 11.941406 6.09375 C 11.949219 6.113281 11.964844 6.125 11.984375 6.125 C 13.757812 6.167969 15.167969 7.605469 15.167969 9.386719 C 15.167969 11.191406 13.714844 12.644531 11.90625 12.644531 L 4.980469 12.644531 C 4.976562 12.644531 4.96875 12.640625 4.960938 12.640625 L 3.113281 12.640625 C 1.960938 12.640625 1.03125 11.683594 1.03125 10.492188 L 1.03125 10.253906 C 1.03125 9.109375 1.890625 8.179688 2.980469 8.109375 C 3.003906 8.109375 3.023438 8.085938 3.023438 8.058594 C 3.019531 7.972656 3.015625 7.886719 3.015625 7.796875 L 3.015625 7.65625 C 3.015625 4.972656 5.0625 2.8125 7.601562 2.8125 Z M 7.601562 2.8125 "/>
</g>
</svg>

<svg xmlns="http://www.w3.org/2000/svg" width="16pt" height="16pt" viewBox="0 0 16 16"><defs><radialGradient id="a" gradientUnits="userSpaceOnUse" cx="450.909" cy="189.579" fx="450.909" fy="189.579" r="21.167" gradientTransform="matrix(0 -.03907 -.07032 0 25.073 30.475)"><stop offset="0" stop-opacity=".314"/><stop offset=".222" stop-opacity=".275"/><stop offset="1" stop-opacity="0"/></radialGradient><radialGradient id="b" gradientUnits="userSpaceOnUse" cx="450.909" cy="189.579" fx="450.909" fy="189.579" r="21.167" gradientTransform="matrix(0 .03907 .07032 0 -9.858 -5.087)"><stop offset="0" stop-opacity=".314"/><stop offset=".222" stop-opacity=".275"/><stop offset="1" stop-opacity="0"/></radialGradient><radialGradient id="c" gradientUnits="userSpaceOnUse" cx="450.909" cy="189.579" fx="450.909" fy="189.579" r="21.167" gradientTransform="matrix(0 -.03907 .07032 0 -9.858 30.475)"><stop offset="0" stop-opacity=".314"/><stop offset=".222" stop-opacity=".275"/><stop offset="1" stop-opacity="0"/></radialGradient><radialGradient id="d" gradientUnits="userSpaceOnUse" cx="450.909" cy="189.579" fx="450.909" fy="189.579" r="21.167" gradientTransform="matrix(0 .03907 -.07032 0 25.073 -5.087)"><stop offset="0" stop-opacity=".314"/><stop offset=".222" stop-opacity=".275"/><stop offset="1" stop-opacity="0"/></radialGradient><linearGradient id="e" gradientUnits="userSpaceOnUse" x1="255.323" y1="233.5" x2="255.323" y2="254.667" gradientTransform="matrix(.00668 0 0 .03125 5.075 5.396)"><stop offset="0" stop-opacity=".275"/><stop offset="1" stop-opacity="0"/></linearGradient><linearGradient id="f" gradientUnits="userSpaceOnUse" x1="254" y1="191.167" x2="254" y2="-126.333" gradientTransform="matrix(.03125 0 0 .03125 0 6.72)"><stop offset="0" stop-color="#b0bec5"/><stop offset="1" stop-color="#cfd8dc"/></linearGradient><linearGradient id="g" gradientUnits="userSpaceOnUse" x1="227.542" y1="244.083" x2="227.542" y2="-168.667"><stop offset="0" stop-color="#607d8b"/><stop offset="1" stop-color="#78909c"/></linearGradient></defs><path d="M11.906 12.695h1.324v-.664h-1.324zm0 0" fill="url(#a)"/><path d="M3.309 12.695H1.984v.66H3.31zm0 0" fill="url(#b)"/><path d="M3.309 12.695H1.984v-.664H3.31zm0 0" fill="url(#c)"/><path d="M11.906 12.695h1.324v.66h-1.324zm0 0" fill="url(#d)"/><path d="M3.309 12.527h8.597v.828H3.31zm0 0" fill="url(#e)"/><path d="M7.602 2.766c-2.567 0-4.633 2.18-4.633 4.89v.14c0 .09.004.18.008.266-1.114.07-1.993 1.024-1.993 2.192v.238c0 1.215.95 2.195 2.13 2.195H4.96v.004h6.945a3.3 3.3 0 0 0 3.309-3.304 3.301 3.301 0 0 0-3.227-3.309c-.62-1.93-2.343-3.312-4.386-3.312zm0 0" fill="url(#f)"/><path d="M3.297 8.063a2.316 2.316 0 0 0-2.328 2.316v.101a2.317 2.317 0 0 1 2.328-2.21c1.254 0 2.27.976 2.324 2.21v-.101a2.316 2.316 0 0 0-2.324-2.316zm0 0" fill="#fafafa" fill-opacity=".588"/><path d="M7.602 2.766c-2.567 0-4.633 2.18-4.633 4.89v.196C3 5.168 5.055 3.02 7.602 3.02c2.043 0 3.765 1.382 4.386 3.312a3.3 3.3 0 0 1 3.223 3.18c.004-.043.004-.086.004-.125a3.301 3.301 0 0 0-3.227-3.309c-.62-1.93-2.343-3.312-4.386-3.312zM2.969 8.062C1.859 8.137.984 9.087.984 10.255v.246c.008-1.168.88-2.113 1.993-2.184-.004-.086-.008-.168-.008-.254zm0 0" fill="#fff" fill-opacity=".392"/><path d="M201.106-72.889c-26.123 0-47.37 18.374-47.37 41.621v62.994c0 7.25 5.749 13 12.998 13 7.124 0 12.999-5.75 12.999-13V14.603c0-5.624 4.374-9.999 9.874-9.999h22.998c5.5 0 9.874 4.375 9.874 10v17.122c0 7.25 5.874 13 12.999 13 7.124 0 12.998-5.75 12.998-13v-62.994c0-23.247-21.248-41.62-47.37-41.62zm0 25.873c4 0 9.624 1.125 14.123 3.25 4.375 2.25 7.375 5.374 7.25 9.624v8.624c0 5.5-4.375 9.999-9.874 9.999h-22.998c-5.5 0-9.874-4.5-9.874-10v-8.623c0-4.375 3-7.375 7.374-9.624 4.375-2.125 9.874-3.25 13.999-3.25zm0 0" transform="matrix(.03125 0 0 .03125 0 6.72)" fill="url(#g)" stroke-width="3" stroke="#212121"/><path d="M2.969 7.598V7.809h.008c-.004-.07-.004-.141-.008-.211zm12.242 1.66a3.297 3.297 0 0 1-3.305 3.183H4.961v-.007H3.113c-1.175 0-2.12-.973-2.129-2.188v.246c0 1.215.95 2.195 2.13 2.195H4.96v.004h6.945a3.3 3.3 0 0 0 3.309-3.304c0-.043 0-.086-.004-.13zm0 0" fill-opacity=".235"/><path d="M11.988 6.078c-1.785 0-3.222 1.477-3.222 3.309v.125c.066-1.778 1.476-3.184 3.222-3.184s3.16 1.406 3.223 3.184c.004-.043.004-.082.004-.125 0-1.832-1.438-3.309-3.227-3.309zm0 0" fill="#fafafa" fill-opacity=".588"/><path d="M7.602 2.719c-2.594 0-4.68 2.203-4.68 4.937v.14c0 .075.004.15.008.224C1.812 8.117.937 9.078.937 10.254v.238c0 1.242.97 2.242 2.176 2.242h1.828a.035.035 0 0 0 .02.004h6.945a3.347 3.347 0 0 0 3.356-3.351 3.347 3.347 0 0 0-3.242-3.352C11.387 4.102 9.652 2.72 7.602 2.72zm0 .094c2.02 0 3.726 1.367 4.34 3.28.007.02.023.032.042.032a3.254 3.254 0 0 1 3.184 3.262 3.252 3.252 0 0 1-3.262 3.258H4.98c-.003 0-.011-.004-.02-.004H3.114c-1.152 0-2.082-.957-2.082-2.149v-.238c0-1.145.86-2.074 1.95-2.145.023 0 .042-.023.042-.05a5.682 5.682 0 0 1-.007-.262v-.14c0-2.684 2.046-4.845 4.586-4.845zm0 0" fill="#212121"/></svg>
